X:292
T:Man of Constant Sorrow
C:Mike Compton break
N:Transcribed by Mark Dixon Transcribed by Mike Stangeland
R:bluegrass
L:1/8
Q:1/4=190
M:4/4
K:F
z2 [f2A2F2] [fAF]F AB | "F"[fc][fc] [fc][fc] [fc][fc] [fc][fc] | [fc][_ac] [ac][ac] [ac][ac] [ac][ac] | 
[_ac]g f_e fe cB | _AF [AF][AF] [AF][AF] [AF][AF] | "Bb"[dB][dB] [dB][dB] [dB][dB] [dB][dB] | 
[dB][dB] [dB][dB] [dB][dB] [dA][dB] | [ec][ec] [ec][ec] [ec]_e cB | cB _AF AF A=A | 
[fAF][fAF] [fAF][fAF] [fAF][fAF] [fAF][fAF] | [f8A8F8] | z8 | z8 | z8 | z8 | z8 | 
z8 | z8 | z8 | z8 | z8 | z8 | z8 | "."z8 | 


